X:146
T:Cavendish Court or.. JJo8.146
B:J.Johnson Choice Collection Vol 8 1758
Z:vmp.Simon Wilson 2013 www.village-music-project.org.uk
T:Look Sharp. JJo8.146
M:3/4
L:1/8
Q:3/4=40
K:G
"^The Minuet 4 times, the last tune twice."G4g2|f>ad2d2|c>eA2A2|F>AD2D2|EGFAGB|A2^c2d2|faA2T^c2|d2D4:|
M:2/4
Q:1/4=100
G/g/f/e/ d/c/B/A/|GGG2|D/d/c/B/ A/G/F/E/|DDD2:|
|:"^Brisk"B/d/B/G/ c/e/c/A/|f/d/e/f/ gg|B/d/B/G/ A/c/A/F/|GGG2:|
